X: 20472
Q: "March time."
M: C
L: 1/8
K: D
d>ddd dafd | dBBB B2zg/g/ |\
g>fed ceac | eddd d2z :|\
a |\
agee e2eg | gfdd d3a |
(ag)fe (gf)ed | a2aa agfe |\
d>ddd dfad | dBBB B3g |\
g>fed ceac | eddd d2z |]


